resources/material/verified-update.svg

<svg width="16" height="16" fill="#f4f4f7" fill-opacity="context-fill-opacity">
  <path d="m16 8-1.775-2.029.247-2.684-2.625-.596L10.472.364 8 1.425 5.527.364l-1.375 2.32-2.625.589.247 2.691L0 8l1.775 2.029-.248 2.691 2.625.596 1.375 2.32L8 14.567l2.473 1.062 1.375-2.32 2.625-.596-.247-2.684L16 8zm-5.218-.576c-.299.3-.787.3-1.086 0l-.927-.928v4.863a.769.769 0 1 1-1.538 0V6.496l-.927.928a.769.769 0 0 1-1.087-1.087l2.239-2.239a.754.754 0 0 1 .247-.165.795.795 0 0 1 .595 0 .746.746 0 0 1 .245.165l2.239 2.239c.301.3.301.787 0 1.087z"/>
</svg>

<!-- This Source Code Form is subject to the terms of the Creative Commons
   - Attribution-NonCommercial-ShareAlike International License, v. 4.0.
   - If a copy of the CC BY-NC-SA 4.0 was not distributed with this
   - file, You can obtain one at http://creativecommons.org/licenses/by-nc-sa/4.0/
   - or send a letter to Creative Commons, PO Box 1866, Mountain View, CA 94042, USA. -->

<svg xmlns="http://www.w3.org/2000/svg" width="16" height="16" viewBox="0 0 16 16" fill="context-fill"
	fill-opacity="context-fill-opacity">
	<path
		d="M16,8l-1.775-2.029l0.247-2.684l-2.625-0.596l-1.375-2.327L8,1.425L5.527,0.364l-1.375,2.32L1.527,3.273l0.247,2.691L0,8
	l1.775,2.029L1.527,12.72l2.625,0.596l1.375,2.32L8,14.567l2.473,1.062l1.375-2.32l2.625-0.596l-0.247-2.684L16,8z M10.782,7.424
	c-0.299,0.3-0.787,0.3-1.086,0L8.769,6.496v4.863c0,0.425-0.344,0.769-0.769,0.769s-0.769-0.344-0.769-0.769V6.496L6.304,7.424
	c-0.301,0.3-0.786,0.3-1.087,0c-0.3-0.3-0.3-0.787,0-1.087l2.239-2.239C7.529,4.025,7.613,3.97,7.703,3.933
	c0.183-0.077,0.412-0.077,0.595,0C8.387,3.97,8.471,4.025,8.543,4.098l2.239,2.239C11.083,6.637,11.083,7.124,10.782,7.424z" />
</svg>
